X:1
T:Lobet den Herren, alle Heiden
T:Lobet den Herren, alle Heiden
T:(4 vocum)
T:Andreas Raselius (ca. 1563-1602)
T:© Edition Monika Feinen, Creative Commons Attribution-NonCommercial-ShareAlike 4.0
T:© Edition Monika Feinen, Creative Commons Attribution-NonCommercial-ShareAlike 4.0
T:© Edition Monika Feinen, Creative Commons Attribution-NonCommercial-ShareAlike 4.0
C:Andreas Raselius
Z:© Edition Monika Feinen, Creative Commons Attribution-NonCommercial-ShareAlike 4.0
%%score [ 1 2 3 4 ]
L:1/8
Q:1/2=80
M:4/2
K:F
V:1 treble nm="Cantus"
V:2 treble nm="Altus"
V:3 treble-8 nm="Tenor"
V:4 bass nm="Bassus"
V:1
 d8 d4 d4 | c8 d4 d4- | d4 c4 B8 | A8 z4 A4 | B4 A4 c4 c2 d2- | d2 B2 c4 c4 A4 | %6
w: Lo- bet den|Her- ren, al-|* le Hei-|den, lo-|bet den Her- ren, al-|* le Hei- den, prei-|
 A2 G2 A2 B4 B2 A4 | B8 z4 B4- | B2 A2 G2 F4 G2 A4 | B8 d8 | d4 c4 A2 A2 B4- | B2 AG A4 B4 B4 | %12
w: * set Ihn, al- le Völ-|ker, prei-|* set Ihn, al- le Völ-|ker, denn|sei- ne Gnad' und Wahr-|* * * * heit, denn|
 B4 c2 A4 B2 A4 | B4 d6 c2 d2 _e2 | f8 d4 d4- | d4 d4 G4 F4- | F2 E2 F2 G2 A2 B2 c4- | %17
w: sei- ne Gnad' und Wahr-|heit wal- * * *|* tet ü-|* ber uns, wal-||
 c2 B2 B8 A4 | B4 d4 c4 c4 | d4 B4 c4 d4 | G4 A4 B4 c4 | F4 f4 _e4 c4 | d6 d2 d4 e4 | f4 f4 f4 d4 | %24
w: * tet ü- ber|uns in E- wig-|keit, in E- wig-|keit, in E- wig-|keit, in E- wig-|keit, al- le- lu-|ja, al- le- lu-|
 e4 e4 ^c4 d4 | d4 =B4 B4 ^c4 | d6 d2 d4 B4 | B4 d4 d4 e4 | f4 f4 fedc B4- | B4 A4 B8 | B16- | %31
w: ja, al- le- lu-|ja, al- le- lu-|ja, al- le- lu-|ja, al- le- lu-|ja, al- le- * * * *|* * lu-|ja,|
 B8- !fermata!B8 |] %32
w: _ _|
V:2
 B8 B4 B4 | A8 B4 B4- | B4 A4 F6 ED | C4 C4 z4 F4 | F4 F4 G4 A2 B2- | B2 F2 G4 A4 F4- | %6
w: Lo- bet den|Her- ren, al-|* le Hei- * *|* den, lo-|bet den Her- ren, al-|* le Hei- den, prei-|
 F2 D2 D2 F4 F2 F4 | F8 z4 F4- | F2 F2 D2 D4 E2 F4 | F8 B8 | B4 G4 F4 F4 | F8 F4 F4 | %12
w: * set Ihn, al- le Völ-|ker, prei-|* set Ihn, al- le Völ-|ker, denn|sei- ne Gnad' und|Wahr- heit, denn|
 G4 G2 F4 F2 F4 | F4 B6 A2 B2 c2 | d2 c2 B4 B8 | A2 G2 A2 =B2 c4 A4 | z4 z4 z4 z4 | %17
w: sei- ne Gnad' und Wahr-|heit wal- * * *|* * * tet|wal- * * * * tet,||
 D2 C2 D2 E2 F4 F4 | F4 F4 G4 A4 | B4 F4 E4 D4 | _E2 D2 F2 F2 F4 G4 | A6 A2 G2 B2 B2 A2 | %22
w: wal- * tet _ ü- ber|uns, in E- wig-|keit, in E- wig-|keit, in E- wig- keit, in|E- wig- keit, in E- wig-|
 B4 B4 B4 c4 | c4 c4 A4 =B4 | c6 G2 A4 A4 | =B4 G4 _A4 =A4 | A4 A4 F4 G4 | F4 B4 B4 c4 | %28
w: keit, al- le- lu-|ja, al- le- lu-|ja, al- le- lu-|ja, al- le- lu-|ja, al- le- lu-|ja, al- le- lu-|
 A4 A4 A2 A2 G4 | z4 F4 FEDC D2 E2 | F4 G4 G4 F4 | F6 F2 !fermata!F8 |] %32
w: ja, al- le- lu- ja,|al- le- * * * * *|* lu- ja, al-|le- lu- ja.|
V:3
 f8 f4 f4 | f8 f4 g4- | g4 f4 d6 e2 | f4 f4 z4 c4 | d4 d4 e4 f2 f2- | f2 f2 e4 f4 c4- | %6
w: Lo- bet den|Her- ren, al-|* le Hei- *|* den, lo-|bet den Her- ren, al-|* le Hei- den, prei-|
 c2 B2 f2 d4 d2 c4 | d8 z4 d4- | d2 c2 B2 A4 B2 c4 | d8 f8 | g4 e4 d4 d4 | c8 B4 d4 | %12
w: * set Ihn, al- le Völ-|ker, prei-|* set Ihn, al- le Völ-|ker, denn|sei- ne Gnad' und|Wahr- heit, denn|
 d4 e2 d4 d2 c4 | B8 z4 d4- | d2 c2 d2 _e2 f8- | f4 d4 c4 d4 | a6 g2 f4 g4- | g2 g2 g2 g2 c8 | %18
w: sei- ne Gnad' und Wahr-|heit wal-||* tet ü- ber|uns, _ _ wal-|* tet ü- ber uns|
 d8 e4 f4 | B4 d4 c4 f4 | g4 c4 d4 _e4 | d4 d4 c6 c2 | B6 f2 g4 g4 | a4 f4 d4 G4 | c4 g4 e4 ^f4 | %25
w: in E- wig-|keit, in E- wig-|keit, in E- wig-|keit, in E- wig-|keit, al- le- lu-|ja, al- le- lu-|ja, al- le- lu-|
 g4 d4 e4 e4 | f4 d4 B4 _e4 | B4 f4 g4 g4 | f4 c4 dcBA Bcde | d4 c4 B4 f4 | d2 c2 B2 A2 B2 c2 d4- | %31
w: ja, al- le- lu-|ja, al- le- lu-|ja, al- le- lu-|ja, al- le- * * * * * * *|* lu- ja, al-|le- * * * * * *|
 d4 d4 !fermata!d8 |] %32
w: * lu- ja.-|
V:4
 B,8 B,4 B,4 | F,8 B,4 G,4- | G,4 A,4 B,8 | F,8 z4 F,4 | B,4 D4 C4 F,2 B,2- | B,2 D2 C4 F,4 F,4- | %6
w: Lo- bet den|Her- ren, al-|* le Hei-|den, lo-|bet den Her- ren, al-|* le Hei- den, prei-|
 F,2 G,2 D,2 B,,4 B,2 F,4 | B,,8 z4 B,,4- | B,,2 F,2 G,2 D,4 G,2 F,4 | B,,12 B,4 | %10
w: * set Ihn, al- le Völ-|ker, prei-|* set Ihn, al- le Völ-|ker, denn|
 G,4 C,4 D,4 B,,4 | F,8 B,,4 B,4 | G,4 C,2 D,4 B,,2 F,4 | B,,16 | z4 B,6 A,2 B,2 C2 | %15
w: sei- ne Gnad' und|Wahr- heit, denn|sei- ne Gnad' und Wahr-|heit|wal- * * *|
 D4 D4 z4 D,4- | D,2 C,2 D,2 E,2 F,4 C,4 | G,8 F,8 | B,8 z8 | z4 G,4 A,4 B,4 | %20
w: * tet wal-|* * * * * tet|ü- ber|uns|in E- wig-|
 _E,2 G,2 F,2 F,2 B,,4 z4 | z4 D,4 _E,4 F,4 | B,,4 B,4 G,4 C4 | F,8 z8 | z4 C4 A,4 D4 | %25
w: keit, in E- wig- keit,|in E- wig-|keit, al- le- lu-|ja,|al- le- lu-|
 G,4 G,4 E,4 A,4 | D,8 z4 z4 | z4 B,4 G,4 C4 | F,4 F,4 D,4 G,4 | F,8 z4 B,4- | %30
w: ja, al- le- lu-|ja,|al- le- lu-|ja, al- le- lu-|ja, al-|
 B,2 A,2 G,2 F,2 G,4 B,4- | B,4 B,,4 !fermata!B,,8 |] %32
w: * * * * * le-|* lu- ja.|

